X:1
T:cello suite no.1, prelude for VIOLA
T:cello suite no.1, prelude for VIOLA
T:J.S.Bach
C:J.S.Bach
L:1/8
Q:3/16=90
M:4/4
K:G
V:1 alto nm="Viola" snm="Vla."
V:1
 (G,/D/B/)A/ B/D/B/D/ (G,/D/B/)A/ B/D/B/D/ | (G,/E/c/)B/ c/E/c/E/ (G,/E/c/)B/ c/E/c/E/ | %2
 (G,/F/c/)B/ c/F/c/F/ (G,/F/c/)B/ c/F/c/F/ | (G,/G/B/)A/ B/G/B/G/ (G,/G/B/)A/ B/G/B/F/ | %4
 (G,/E/B/)A/ B/G/F/G/ E/G/F/G/ B,/D/^C/B,/ | (^C/G/A/)G/ A/G/A/G/ (C/G/A/)G/ A/G/A/G/ | %6
 (F/A/d/)^c/ d/A/G/A/ G/A/G/A/ D/F/E/D/ | (E,/B,/G/)F/ G/B,/G/B,/ (E,/B,/G/)F/ G/B,/G/B,/ | %8
 E,/^C/D/E/ D/C/B,/A,/ (G/F/E/)d/ ^c/B/A/G/ | (F/E/D/)d/ A/d/F/A/ D/(E/F/A/) G/F/E/D/ | %10
 ^G/(D/^E/=E/) ^E/D/G/D/ B/(D/E/=E/) ^E/D/G/D/ | (C/E/A/)B/ c/A/E/D/ (C/E/A/)B/ c/A/F/^E/ | %12
 ^D/F/D/F/ A/F/A/F/ D/F/D/F/ A/F/A/F/ | (G/F/E/)G/ F/G/A/F/ G/F/E/D/ C/B,/A,/G,/ | %14
 (F,/C/D/)C/ D/C/D/C/ (F,/C/D/)C/ D/C/D/C/ | (G,/B,/^E/)=E/ ^E/B,/E/B,/ (G,/B,/E/)=E/ ^E/B,/E/B,/ | %16
 (G,/C/E/)D/ E/C/E/C/ (G,/C/E/)D/ E/C/E/C/ | (G,/D/c/)B/ c/F/c/F/ (G,/F/c/)B/ c/F/c/F/ | %18
 (G,/D/B/)A/ B/G/F/E/ D/C/B,/A,/ G,/F,/E,/D,/ | (^C,/A,/E/)F/ G/E/F/G/ (C,/A,/E/F/) G/E/F/G/ | %20
 (C,/A,/D/)E/ F/D/E/F/ (C,/A,/D/)E/ F/D/E/F/ | C,/A,/D/F/ B/^c/(!fermata!d d/)A,/B,/C/ D/E/F/G/ | %22
 A/F/D/E/ F/G/A/B/ c/A/F/G/ A/B/c/d/ | (e/d/^c/d/) (d/=c/B/c/) c/A/F/E/ D/A,/B,/C/ | %24
 (D,/A,/D/)F/ A/B/c/A/ (B/G/D/)C/ B,/G,/A,/B,/ | (D,/G,/B,/)D/ G/A/B/G/ (^c/^A/=A/B/) (B/A/^G/A/) | %26
 A/G/F/G/ G/E/^C/B,/ (A,/C/E/)G/ A/^c/d/c/ | d/A/F/E/ F/A/D/F/ A,/D/^C/B,/ A,/G,/F,/E,/ | %28
 D,(c/B/ A/G/F/E/) D/(c/B/A/ G/F/E/D/) | C/(B/A/G/ F/E/D/C/) B,/(A/G/F/ E/D/C/B,/) | %30
 A,/(G/F/E/) F/A/D/A/ E/A/F/A/ G/A/E/A/ | F/A/D/A/ G/A/E/A/ F/A/D/A/ G/A/E/A/ | %32
 F/A/D/A/ E/A/F/A/ G/A/A/A/ B/A/D/A/ | A/A/B/A/ c/A/D/A/ B/A/c/A/ d/A/B/A/ | %34
 c/A/B/A/ c/A/A/A/ B/A/A/A/ B/A/G/A/ | A/A/G/A/ A/A/F/A/ G/A/F/A/ G/A/E/A/ | %36
 F/A/D/E/ ^E/D/F/D/ G/D/^G/D/ A/D/^A/D/ | B/D/c/D/ ^c/D/d/D/ ^d/D/e/D/ ^e/D/f/D/ | %38
 (g/B/D/)B/ g/B/g/B/ (g/B/D/)B/ g/B/g/B/ | (g/A/D/)A/ g/A/g/A/ (g/A/D/)A/ g/A/g/A/ | %40
 (f/c/D/)c/ f/c/f/c/ (f/c/D/)c/ f/c/f/c/ | !fermata![G,Bg]8 |] %42

